X: 43
T: No_137_I_Have_Gone_Through_This_Before_You.krn
N: Derived from No_137_I_Have_Gone_Through_This_Before_You.krn
%%abc-version 2.0
%%abcx-abcm2ps-target-version 5.9.1 (29 Sep 2008)
%%abc-creator hum2abc beta
%%abcx-conversion-date 2019/03/15 08:37:56
%%humdrum-veritas 3992945866
%%humdrum-veritas-data 3970528411
%%linebreak <none>
%%barnumbers 0
L: 1/4
M: 2/4
K: E clef=bass
[K:clef=bass][M:2/4]C3/B,/ | 
CB, | 
G,F, | 
G,2 | 
B,/G,/ (B,/G,/) ||  
[M:3/4]G,2F,3//E,// ||  
[M:2/4]E,2 ||  
[M:3/4]F,/E,/E,C,/B,,/ ||  
[M:2/4]B,,z ||  
[M:3/4]E,E,E, ||  
[M:2/4]E,C,/B,,/ ||  
[M:3/4]E,E,2 ||  
[M:2/4]C,C, | 
zB, | 
CB, | 
(G,F,) | 
(3G,/F,/F,/F, ||  
[M:3/4]E,C,/B,,/ B,,/ z/ ||  
[M:2/4]E,E, | 
F,F,/E,/ ||  
[M:3/4]E,C,/B,,/B,, | 
E,2C,/B,,/ | 
E,E,2 | 
E,E,2 |]  



